X:1
T:Title
%%score { ( 1 3 ) | ( 2 4 ) }
L:1/8
M:4/4
K:Ab
V:1 treble nm="Grand Piano"
V:3 treble 
V:2 bass 
V:4 bass 
V:1
 z4 z2[Q:1/4=94] [A,C]>[B,D] | [CE][Ec][Ec][Ec] [Ec][CA] [Fd]>[Ec] | B6 B,>C | DBBB B=A c>B | %4
 [CA]6 [CE]>[CA] | [Ec]2 [Ec]2 [Ec][CA][Fd][Ec] | [DB]2 [DF]2 [FB]2 [Ff][Af] | %7
 [Ae]<[Ae] [Ac]A E<c d>G |[M:3/4] [CA]6 |[M:1/4] c>d |[M:4/4] e=dfe A2 _d>c | B6 z2 | ddGF EEGd | %13
 c6 z2 | [DB][CA][CA][CA] [CA][CA] [CA]>[EG] |[M:9/8] [EG]FF F [Fd]2- [Fd]F>F | %16
[M:4/4] Eccd cB F>G |[M:3/4] A6 |] %18
V:2
 z4 z2 [A,,E,]>[A,,E,] | [A,,A,][A,,A,][A,,A,][A,,A,] [A,,A,][A,,A,] [A,,A,]>[A,,A,] | %2
 [E,G,E]6 [E,G,]>[E,A,] | [E,G,B,][E,G,D][E,G,D][E,G,D] [E,G,D][E,_G,C] [E,=G,E]>[E,D] | %4
 [A,,E,]6 [A,,A,]>[A,,E,] | [A,,A,]2 [A,,A,]2 [A,,A,][A,,A,][A,,A,][A,,A,] | %6
 [D,F,]2 [D,B,]2 [D,B,]2 [=D,_C][D,C] | [E,C]<[E,C] [E,E][E,CE] [E,A,C]<[E,A,E] [E,G,E]>[E,B,D] | %8
[M:3/4] [A,,A,]6 |[M:1/4][K:treble] [A,E]>[A,B,E] | %10
[M:4/4] [A,CA][A,_CA][A,DA][A,=CA] [A,CE]2 [A,FA]>[A,EA] | %11
 [D,D]2 [D,D]>[D,D] [D,D]2 [E,G,E]>[E,A,E] | %12
 [E,B,E][E,B,E][E,B,D][E,A,D] [E,G,D][E,G,D][E,B,E][E,B,E] | %13
 [A,E]2 [E,A,][C,A,] [A,,A,]2 [A,,A,]>[A,,E,] | %14
 [A,,E,][A,,E,][A,,E,][A,,E,] [A,,E,][A,,E,] [A,,A,]>[A,,A,] | %15
[M:9/8] [D,A,][D,A,D][D,A,D] [D,A,D] [D,A,]2- [D,A,][D,A,D]>[D,A,D] | %16
[M:4/4] [E,A,C][E,A,E][E,A,E][E,A,F] [E,G,E][E,G,D] [E,A,D]>[E,B,D] |[M:3/4] z2 F,=E, _E,2 |] %18
V:3
 x8 | x8 | x8 | x8 | x8 | x8 | x8 | x8 |[M:3/4] x6 |[M:1/4] x2 |[M:4/4] x8 | F2 F>F F2 B>c | x8 | %13
 z2 EE E2 [Ec]>[DB] | x8 |[M:9/8] x9 |[M:4/4] x8 |[M:3/4] [A,C]2 DD C2 |] %18
V:4
 x8 | x8 | x8 | x8 | x8 | x8 | x8 | x8 |[M:3/4] x6 |[M:1/4][K:treble] x2 |[M:4/4] x8 | x8 | x8 | %13
 x8 | x8 |[M:9/8] x9 |[M:4/4] x8 |[M:3/4] A,,6 |] %18

